X:6565
T:The Boy in the Baskett
O:england
M:9/8
L:1/8
S:Armitt MS
N:The time signature is given as 6/
K:G major
GAG BAG Bdg|GAG Bcd AED|GAG BAG Bdg|ece dBG AFD:||:gag gdB gdB|aba afd|g
ag gdB efg|ege dBG AFD:||
